!!!COM: Palestrina, Giovanni Perluigi da
!!!OPR: Missa Salvum me fac
!!!OMD: Sanctus
!!!OTL: Pleni
**kern	**kern	**kern	**kern
*Ibass	*Icalto	*Icant	*Icant
!Bassus	!Altus	!Cantus 2	!Cantus 1
*clefF4	*clefG2	*clefG2	*clefG2
*k[b-]	*k[b-]	*k[b-]	*k[b-]
*G:dor	*G:dor	*G:dor	*G:dor
*M4/2	*M4/2	*M4/2	*M4/2
=48	=48	=48	=48
0r	0r	0r	1dd
.	.	.	2dd
.	.	.	2ff
=49	=49	=49	=49
0r	1r	0r	2ee
.	.	.	2dd
.	1g	.	2.gg
.	.	.	4ff
=50	=50	=50	=50
0r	2g	0r	2ee-
.	2b-	.	2dd
.	2a	.	2cc
.	2g	.	2b-
=51	=51	=51	=51
0r	1cc	0r	1a
.	2.b-	.	2.g
.	4a	.	4a
=52	=52	=52	=52
0r	2g	1dd	4b-
.	.	.	4g
.	2f	.	2a
.	2g	2dd	2b-
.	[2a	2ff	[2cc
=53	=53	=53	=53
0r	4a]	2ee	2cc]
.	4g	.	.
.	2f	2dd	1dd
.	1e	1gg	.
.	.	.	2cc#
=54	=54	=54	=54
0r	2d	2.ff	2.dd
.	4B-	.	.
.	4c	4ee-	4cc
.	4d	2dd	2b-
.	4e	.	.
.	2f	2cc	2a
=55	=55	=55	=55
1G	2d	2.b-	4g
.	.	.	4a
.	2.g	.	4b-
.	.	4a	4cc
2G	.	4b-	1dd
.	4f	4cc	.
2B-	4d	2dd	.
.	4e	.	.
=56	=56	=56	=56
2A	2f	2cc	1r
2G	1g	2b-	.
2.d	.	1a	2r
.	[2f	.	2dd
4c	.	.	.
=57	=57	=57	=57
2.B-	4f]	1.b-	2dd
.	4e	.	.
.	4d	.	2ff
4A	4c	.	.
2G	4B-	.	2ee
.	4c	.	.
2F	[2d	2a	2dd
=58	=58	=58	=58
1E	2d]	1g	1gg
.	2c#	.	.
2.D	1d	2r	[1ff
.	.	2a	.
4E	.	.	.
=59	=59	=59	=59
4F	1A	2a	2ff]
4G	.	.	.
2A	.	2cc	2ee
2B-	1r	2b-	2dd
2F	.	2a	2cc
=60	=60	=60	=60
2.G	0r	2.dd	2.b-
4A	.	4cc	4a
4B-	.	2b-	2g
4c	.	.	.
2d	.	2a	2f
=61	=61	=61	=61
1G	1d	4g	4b-
.	.	4a	4cc
.	.	4b-	4dd
.	.	4g	4ee
1D	2d	4a	2ff
.	.	4g	.
.	2f	4a	2dd
.	.	4b	.
=62	=62	=62	=62
0r	2e	2cc	2ee
.	2d	1dd	2ff
.	2.a	.	1ee
.	.	2cc#	.
.	4g	.	.
=63	=63	=63	=63
1D	2.f	1dd	2dd
.	.	.	4d
.	4e	.	4e
2D	2d	1r	4f
.	.	.	4g
2F	4c	.	4a
.	4d	.	4b
=64	=64	=64	=64
2E	4e	0r	2cc
.	4c	.	.
2D	2f	.	1dd
1A	1e	.	.
.	.	.	2cc#
=65	=65	=65	=65
2.B-	1d	2r	2dd
.	.	2ff	1b-
4c	.	.	.
[1d	2r	2dd	.
.	2f	[2ff	4a
.	.	.	4g
=66	=66	=66	=66
1d]	2d	4ff]	0a
.	.	4ee	.
.	1f	1dd	.
1A	.	.	.
.	2e	2cc	.
=67	=67	=67	=67
0r	2.d	2b-	2r
.	.	2a	2ff
.	4c	.	.
.	4B-	2b-	2dd
.	4c	.	.
.	4d	4a	[2ff
.	4e	4g	.
=68	=68	=68	=68
0r	2f	2a	4ff]
.	.	.	4ee
.	2g	1b-	1dd
.	1e-	.	.
.	.	4a	2cc
.	.	4g	.
=69	=69	=69	=69
2r	1d	1f	0dd
2B-	.	.	.
2G	2r	2.b-	.
[2B-	2f	.	.
.	.	4cc	.
=70	=70	=70	=70
4B-]	2d	0dd	1b-
4A	.	.	.
1G	1b-	.	.
.	.	.	2g
2F#	2a	.	2a
=71	=71	=71	=71
1G	1g	1dd	1b-
1D	2f	2r	1a
.	[2d	2ff	.
=72	=72	=72	=72
2r	2d]	2dd	[0a
2F	2c	2.ff	.
2D	2.f	.	.
.	.	4ee	.
[2F	.	2dd	.
.	4g	.	.
=73	=73	=73	=73
4F]	2a	2cc	1a_
4E	.	.	.
1D	1f	4dd	.
.	.	4ee	.
.	.	4ff	1a_
.	.	4dd	.
2C#	2e	2ee	.
=74	=74	=74	=74
2.D	2r	2ff	0a]
.	2f	1dd	.
4E	.	.	.
4F	2d	.	.
4G	.	.	.
4A	2f	4cc	.
4B-	.	4b-	.
=75	=75	=75	=75
4c	2e	[0a	0r
4A	.	.	.
1d	2d	.	.
.	1e	.	.
2c#	.	.	.
=76	=76	=76	=76
1d	2.d	0a]	2r
.	.	.	2ff
.	4e	.	.
1D	2f	.	2dd
.	2d	.	[2ff
=77	=77	=77	=77
0D	1a	2r	4ff]
.	.	.	4ee-
.	.	2ff	4dd
.	.	.	4cc
.	1r	2dd	2b-
.	.	[2ff	2a
=78	=78	=78	=78
0r	2r	4ff]	2.b-
.	.	4ee-	.
.	2b-	4dd	.
.	.	4cc	4cc
.	2g	4b-	1dd
.	.	4a	.
.	[2b-	2g	.
=79	=79	=79	=79
0r	4b-]	2.dd	4g
.	4a	.	4a
.	1g	.	4b-
.	.	4cc	4cc
.	.	2b-	2.dd
.	2f#	[2a	.
.	.	.	4cc
=80	=80	=80	=80
0r	1g	4a]	2b-
.	.	4g	.
.	.	1g	4a
.	.	.	4g
.	1d	.	1a
.	.	2f#	.
=81	=81	=81	=81
1E-	0G	0g	1g
2C	.	.	2r
[2E-	.	.	2b-
=82	=82	=82	=82
4E-]	2r	1ee-	2g
4D	.	.	.
1C	2g	.	1ee-
.	2g	2cc	.
2BB	2g	2dd	2dd
=83	=83	=83	=83
0C	0g	0ee-	0cc
=84	=84	=84	=84
[0G	[0g	[0dd	[0b
=85	=85	=85	=85
0G]	0g]	0dd]	0b]
*-	*-	*-	*-
!!!CDT: 1525/^1526/-1594/2/2
!!!OCY: Italia
!!!AGN: Mass (Parody)
!!!AST: renaissance, vocal
!!!ASW: Motet 1538 (Jacquet)
!!!PWK: Masses, Book 2
!!!RNB: Cadence finals: D
!!!YOR: Le Opere Complete, v. 4, p. 126
!!!YOO: Rome, Italy: Fratelli Scalera
!!!END: 1992//
!!!EED: John Miller
!!!YEC: Copyright 2000, John Miller
!!!YEN: United States of America
!!!YEM: Rights to all derivative electronic formats reserved.
!!!YEM: Refer to licensing agreement for further details.
!!!YEM: This file must be accompanied by the licensing agreement.
!!!YEM: A copy of the licensing agreement may be found at http://www.music-cog.ohio-state.edu/HumdrumDatabases/Palestrina/license.txt
!!!EMD: converted to Humdrum by Bret Aarden
